Simply-Cyan-Circles/scalable/apps/cs-desktop.svg

<svg xmlns="http://www.w3.org/2000/svg" width="48" height="48" viewBox="0 0 12.7 12.7"><g fill="#5beedc"><path d="M6.34.07a6.29 6.29 0 0 0-6.29 6.3 6.29 6.29 0 0 0 6.3 6.28 6.29 6.29 0 0 0 6.28-6.29A6.29 6.29 0 0 0 6.34.07zm-.01.94a5.4 5.4 0 0 1 5.4 5.4 5.4 5.4 0 0 1-5.4 5.41 5.4 5.4 0 0 1-5.41-5.4A5.4 5.4 0 0 1 6.32 1z"/><path d="M2.7 3.24c-.14 0-.26.02-.26.04v.74c0 .02.12.04.26.04h7.25c.14 0 .26-.02.26-.04v-.74c0-.02-.12-.04-.26-.04H2.7zm-.24 1.01v5.06c0 .14.11.26.26.26h7.24a.26.26 0 0 0 .26-.26V4.26zm.48.83h1.1v1.29h-1.1zm0 1.84h1.1v1.29h-1.1z"/></g></svg>

<?xml version="1.0" encoding="UTF-8" standalone="no"?>
<svg
   xmlns:dc="http://purl.org/dc/elements/1.1/"
   xmlns:cc="http://creativecommons.org/ns#"
   xmlns:rdf="http://www.w3.org/1999/02/22-rdf-syntax-ns#"
   xmlns:svg="http://www.w3.org/2000/svg"
   xmlns="http://www.w3.org/2000/svg"
   xmlns:sodipodi="http://sodipodi.sourceforge.net/DTD/sodipodi-0.dtd"
   xmlns:inkscape="http://www.inkscape.org/namespaces/inkscape"
   width="48"
   height="48"
   viewBox="0 0 12.7 12.7"
   version="1.1"
   id="svg8"
   sodipodi:docname="cs-desktop.svg"
   inkscape:version="0.92.4 (5da689c313, 2019-01-14)">
  <metadata
     id="metadata14">
    <rdf:RDF>
      <cc:Work
         rdf:about="">
        <dc:format>image/svg+xml</dc:format>
        <dc:type
           rdf:resource="http://purl.org/dc/dcmitype/StillImage" />
        <dc:title></dc:title>
      </cc:Work>
    </rdf:RDF>
  </metadata>
  <defs
     id="defs12" />
  <sodipodi:namedview
     pagecolor="#ffffff"
     bordercolor="#666666"
     borderopacity="1"
     objecttolerance="10"
     gridtolerance="10"
     guidetolerance="10"
     inkscape:pageopacity="0"
     inkscape:pageshadow="2"
     inkscape:window-width="1087"
     inkscape:window-height="480"
     id="namedview10"
     showgrid="false"
     inkscape:zoom="4.9166667"
     inkscape:cx="2.1355932"
     inkscape:cy="24"
     inkscape:window-x="0"
     inkscape:window-y="25"
     inkscape:window-maximized="0"
     inkscape:current-layer="svg8" />
  <g
     id="g6"
     style="fill:#5beedc">
    <path
       d="M 6.34,0.07 A 6.29,6.29 0 0 0 0.05,6.37 6.29,6.29 0 0 0 6.35,12.65 6.29,6.29 0 0 0 12.63,6.36 6.29,6.29 0 0 0 6.34,0.07 Z M 6.33,1.01 a 5.4,5.4 0 0 1 5.4,5.4 5.4,5.4 0 0 1 -5.4,5.41 A 5.4,5.4 0 0 1 0.92,6.42 5.4,5.4 0 0 1 6.32,1 Z"
       id="path2"
       inkscape:connector-curvature="0" />
    <path
       d="m 2.7,3.24 c -0.14,0 -0.26,0.02 -0.26,0.04 v 0.74 c 0,0.02 0.12,0.04 0.26,0.04 h 7.25 c 0.14,0 0.26,-0.02 0.26,-0.04 V 3.28 C 10.21,3.26 10.09,3.24 9.95,3.24 Z M 2.46,4.25 v 5.06 c 0,0.14 0.11,0.26 0.26,0.26 H 9.96 A 0.26,0.26 0 0 0 10.22,9.31 V 4.26 Z m 0.48,0.83 h 1.1 v 1.29 h -1.1 z m 0,1.84 h 1.1 v 1.29 h -1.1 z"
       id="path4"
       inkscape:connector-curvature="0" />
  </g>
</svg>
